X:470
T:Soldier's Joy
K:D
M:4/4
L:1/8
P:A
FG|"D"AFDF AFDF|A2d2 d2cB|"D"AFDF AFDF|"A"G2E2 E2FG|
"D"AFDF AFDF|A2d2 "G"d2e2|"D"fafd "A"egec|"D"d2f2 d2:|
P:B
|:e2|"D"f2f2 fagf|"A"e2e2 egfe|"D"f2f2 fagf|"G"edcB "A"A4|
"D"f2f2 fagf|"A"e2e2 egfe|"D"fafd "A"egec|"D"d2f2 d2:|

